X: 1
M: 3/4
L: 1/8
K: D
[|\
"D"FA dd cd | "G"B3 A G2 | "Em"EG Bd cB | "A"cd eA de |\
"D"fe df ed | "G"B3 A G2 | "A"AA d3 c | "D"d6 ||
"D"FA dd cd | "G"B3 A G2 | "Em"EG Bd cB | "A"cd eA de |\
"D"fe df ed | "G"B3 A G2 | "A"AA d3 c | "D"d3 A de |]
"D"fg ad cd | "G"B3 d cd | "E/F#"A3 d cd | "Em"GB ed cB |\
"A"cd eA de | "D"fg ad cd | "G"B3 d cB | "A"A2 d2 c2 | "D"d3 A de ||
"D"fg ad cd | "G"B3 d cd | "E/F#"A3 d cd | "Em"GB ed cB |\
"A"cd eA de | "D"fg ad cd | "G"B3 d cB | "A"A2 d2 c2 | "D"d6 |]
